X:8
T:Music In The Glen
R:Reel
S:Paddy Canny, Clare (fiddle)
D:Home tape of unknown provenance
N:As played
Z:Bernie Stocks
M:4/4
K:G
|: ~G2BG EGDC | B,DGB AGAB | ~c2ec BcdB | {c}BABG AGED |
~G2BG EGDC | B,DGB AGAB | cdef {a}gfge | dcBA G4 :|
|: (3.B.B.G dG eGdG | (3.B.B.G dB cAFA | (3.B.B.G dG ed (3.e.e.f | gedB AGEG |
(3.B.B.G dG eG (3.d.e.f | g3b afdf | gafg egdB | {d}BABG AGED :|
<end>
<start>
